X: 1
T: March For Didace
M: 4/4
L: 1/8
R: reel
K: Dmaj
|:AB|c2Bcd2cd|e2A2A2Bc|d2G2GABc|d2G2G2AB|
c2Bcd2cd|eAag f2ed|cAec dGBd|e2A2A2:|
fg|a2fa g2eg|fedf ecAc|d2G2 GABc|d2G2G2fg|
a2fa g2eg|fedf ecAc|dGBd fede|f2d2d2fg|
a2fa g2eg|fedf ecAc|d2G2 GABc|d2G2G2AB|
c2Bcd2cd|eAagf2ed|cAec dGBd|e2A2A2z2|
